X: 41
M: C|
L: 1/8
K: G
vGEDE GABd | e2 de gedB | e2 de gedB | A2 AG AcBA |
(3(BcB)AB (3(BcB)GB | (3(cec)Ac (3(cec)Ac | (3(BcB)GB (3(BcB)GB| AGEGA2Ac |
(3(BcB)AB (3(BcB)AB | (3(cec)Ac (3(cec)Ac | Bdef gage | dBAB G2G2 :|


